packages/ffe-icons/icons/open/400/sm/widgets.svg

<svg xmlns="http://www.w3.org/2000/svg" height="20" viewBox="0 -960 960 960" width="20"><path d="M610-458 457.386-611q-5.386-5.4-7.886-11.7-2.5-6.3-2.5-13.5t2.5-13.5Q452-656 457-661l153-153q5-5 12-8t14.2-3q7.2 0 13.5 3t11.3 8l152.614 153q5.386 5.4 7.886 11.7 2.5 6.3 2.5 13.5t-2.5 13.5Q819-616 814-611L661-458q-5 5-11.3 8-6.3 3-13.5 3t-14.2-3q-7-3-12-8ZM144-563.96v-215.757Q144-795 154.338-805.5 164.677-816 179.96-816h215.757Q411-816 421.5-805.662 432-795.323 432-780.04v215.757Q432-549 421.662-538.5 411.323-528 396.04-528H180.283Q165-528 154.5-538.338 144-548.677 144-563.96Zm384 384v-215.757Q528-411 538.338-421.5 548.677-432 563.96-432h215.757Q795-432 805.5-421.662 816-411.323 816-396.04v215.757Q816-165 805.662-154.5 795.323-144 780.04-144H564.283Q549-144 538.5-154.338 528-164.677 528-179.96Zm-384 0v-215.757Q144-411 154.338-421.5 164.677-432 179.96-432h215.757Q411-432 421.5-421.662 432-411.323 432-396.04v215.757Q432-165 421.662-154.5 411.323-144 396.04-144H180.283Q165-144 154.5-154.338 144-164.677 144-179.96ZM216-600h144v-144H216v144Zm420 66 101-102-101-102-102 102 102 102Zm-36 318h144v-144H600v144Zm-384 0h144v-144H216v144Zm144-384Zm174-36ZM360-360Zm240 0Z"/></svg>

<svg xmlns="http://www.w3.org/2000/svg" height="20" viewBox="0 -960 960 960" width="20"><path d="M610-458 457.39-611q-5.39-5.4-7.89-11.7-2.5-6.3-2.5-13.5t2.5-13.5Q452-656 457-661l153-153q5-5 12-8t14.2-3q7.2 0 13.5 3t11.3 8l152.61 153q5.39 5.4 7.89 11.7 2.5 6.3 2.5 13.5t-2.5 13.5Q819-616 814-611L661-458q-5 5-11.3 8-6.3 3-13.5 3t-14.2-3q-7-3-12-8ZM144-563.96v-215.76q0-15.28 10.34-25.78 10.34-10.5 25.62-10.5h215.76q15.28 0 25.78 10.34 10.5 10.34 10.5 25.62v215.76q0 15.28-10.34 25.78-10.34 10.5-25.62 10.5H180.28q-15.28 0-25.78-10.34-10.5-10.34-10.5-25.62Zm384 384v-215.76q0-15.28 10.34-25.78 10.34-10.5 25.62-10.5h215.76q15.28 0 25.78 10.34 10.5 10.34 10.5 25.62v215.76q0 15.28-10.34 25.78-10.34 10.5-25.62 10.5H564.28q-15.28 0-25.78-10.34-10.5-10.34-10.5-25.62Zm-384 0v-215.76q0-15.28 10.34-25.78 10.34-10.5 25.62-10.5h215.76q15.28 0 25.78 10.34 10.5 10.34 10.5 25.62v215.76q0 15.28-10.34 25.78-10.34 10.5-25.62 10.5H180.28q-15.28 0-25.78-10.34-10.5-10.34-10.5-25.62ZM216-600h144v-144H216v144Zm420 66 101-102-101-102-102 102 102 102Zm-36 318h144v-144H600v144Zm-384 0h144v-144H216v144Zm144-384Zm174-36ZM360-360Zm240 0Z"/></svg>
